svgs/duotone/vacuum-robot.svg

<svg xmlns="http://www.w3.org/2000/svg" viewBox="0 0 512 512"><!--! Font Awesome Pro 6.3.0 by @fontawesome - https://fontawesome.com License - https://fontawesome.com/license (Commercial License) Copyright 2023 Fonticons, Inc. --><defs><style>.fa-secondary{opacity:.4}</style></defs><path class="fa-primary" d="M437 74.99C337-24.1 174.1-24.1 74.99 74.99C-24.99 174.1-24.99 337 74.99 437c99.99 99.99 262 99.99 362 .0027C536.1 337 536.1 174.1 437 74.99zM203.3 395.3c-3.125 3.125-7.219 4.688-11.31 4.688s-8.188-1.562-11.31-4.688l-64-64c-6.25-6.25-6.25-16.37 0-22.63c6.25-6.25 16.38-6.25 22.63 0l64 64C209.6 378.9 209.6 389.1 203.3 395.3zM283.3 379.3C280.2 382.4 276.1 383.1 272 383.1s-8.188-1.562-11.31-4.688L132.7 251.3c-6.25-6.25-6.25-16.37 0-22.63s16.37-6.25 22.62 0l128 128C289.6 362.9 289.6 373.1 283.3 379.3zM299.3 299.3C296.2 302.4 292.1 303.1 288 303.1c-4.094 0-8.188-1.562-11.31-4.687l-64-64c-6.25-6.25-6.25-16.38 0-22.63c6.25-6.25 16.38-6.25 22.63 0l64 64C305.6 282.9 305.6 293.1 299.3 299.3zM379.3 379.3c-3.125 3.125-7.219 4.688-11.31 4.688c-4.094 0-8.188-1.562-11.31-4.688c-6.25-6.25-6.25-16.38 0-22.63c27.47-27.47 42.84-63.31 43.31-100.9c.4687-38.13-14.44-74.31-41.98-101.8c-27.52-27.53-62.72-41.97-101.8-41.97c-37.58 .4688-73.41 15.84-100.9 43.31c-6.25 6.25-16.38 6.25-22.63 0c-6.25-6.25-6.25-16.38 0-22.63c33.41-33.41 77.12-52.13 123.1-52.69c45.98-1.094 91.14 17.66 124.8 51.34c33.69 33.69 51.92 78.03 51.36 124.8C431.4 302.2 412.7 345.9 379.3 379.3z"/><path class="fa-secondary" d="M139.3 308.7c-6.25-6.25-16.38-6.25-22.63 0C113.6 311.8 112 315.9 112 319.1c0 4.094 1.562 8.187 4.687 11.31l64 64c3.125 3.125 7.219 4.688 11.31 4.688s8.188-1.563 11.31-4.688c6.25-6.25 6.25-16.38 0-22.63L139.3 308.7zM155.3 228.7c-6.25-6.25-16.38-6.25-22.62 0s-6.25 16.38 0 22.63l128 128c3.125 3.125 7.219 4.688 11.31 4.688s8.188-1.563 11.31-4.688c6.25-6.25 6.25-16.38 0-22.63L155.3 228.7zM299.3 276.7l-64-64C232.2 209.6 228.1 208 224 208C219.9 207.1 215.8 209.6 212.7 212.7C206.4 218.9 206.4 229.1 212.7 235.3l64 64C279.8 302.4 283.9 303.1 288 303.1s8.188-1.563 11.31-4.688C302.4 296.2 303.1 292.1 304 288C304 283.9 302.4 279.8 299.3 276.7z"/></svg>

<svg xmlns="http://www.w3.org/2000/svg" viewBox="0 0 512 512"><!-- Font Awesome Pro 6.0.0-alpha2 by @fontawesome - https://fontawesome.com License - https://fontawesome.com/license (Commercial License) --><defs><style>.fa-secondary{opacity:.4}</style></defs><path d="M139.312 308.688C133.062 302.438 122.937 302.438 116.688 308.688C113.563 311.812 112 315.906 112 320C112 324.094 113.562 328.187 116.688 331.312L180.688 395.312C183.812 398.438 187.906 400 192 400S200.188 398.438 203.312 395.312C209.562 389.062 209.562 378.937 203.312 372.688L139.312 308.688ZM155.312 228.688C149.062 222.438 138.937 222.438 132.688 228.688S126.438 245.063 132.688 251.312L260.688 379.312C263.812 382.438 267.906 384 272 384S280.188 382.438 283.312 379.312C289.562 373.062 289.562 362.937 283.312 356.688L155.312 228.688ZM299.312 276.688L235.312 212.688C232.188 209.563 228.094 208 224 208C219.906 208 215.813 209.562 212.688 212.688C206.438 218.938 206.438 229.063 212.688 235.312L276.688 299.312C279.812 302.438 283.906 304 288 304S296.188 302.438 299.312 299.312C302.437 296.188 304 292.094 304 288C304 283.906 302.438 279.813 299.312 276.688Z" class="fa-secondary"/><path d="M495.974 256.003C495.976 123.434 388.554 16.012 255.985 16.014C123.423 16.013 16.001 123.435 16 255.999C16 388.565 123.423 495.988 255.989 495.988C388.553 495.987 495.975 388.565 495.974 256.003ZM203.3 395.314C200.175 398.439 196.081 400.001 191.988 400.001C187.894 400.001 183.8 398.439 180.675 395.314L116.675 331.314C110.425 325.064 110.425 314.939 116.675 308.689C122.925 302.439 133.05 302.439 139.3 308.689L203.3 372.689C209.55 378.939 209.55 389.064 203.3 395.314ZM283.3 379.314C280.175 382.439 276.082 384.001 271.988 384.001S263.8 382.439 260.675 379.314L132.675 251.314C126.425 245.064 126.425 234.939 132.675 228.689C138.925 222.439 149.05 222.439 155.3 228.689L283.3 356.689C289.55 362.939 289.55 373.064 283.3 379.314ZM299.3 299.314C296.175 302.439 292.082 304.001 287.988 304.001S279.8 302.439 276.675 299.314L212.675 235.314C206.425 229.064 206.425 218.939 212.675 212.689C218.925 206.439 229.05 206.439 235.3 212.689L299.3 276.689C305.55 282.939 305.55 293.064 299.3 299.314ZM379.301 379.314C376.176 382.439 372.082 384.001 367.988 384.001C363.894 384.001 359.801 382.439 356.676 379.314C350.426 373.064 350.426 362.939 356.676 356.689C384.144 329.22 399.519 293.376 399.988 255.814C400.457 217.689 385.551 181.502 358.004 153.97C330.488 126.439 295.285 112.002 256.175 112.002C218.597 112.471 182.769 127.845 155.3 155.314C149.05 161.564 138.925 161.564 132.675 155.314C126.425 149.064 126.425 138.939 132.675 132.689C166.081 99.283 209.8 80.564 255.785 80.002C301.769 78.908 346.926 97.658 380.629 131.345C414.316 165.033 432.551 209.377 431.988 256.189C431.426 302.189 412.707 345.908 379.301 379.314Z" class="fa-primary"/></svg>
